X:1
T:Deh ferm'il volo
T:Stefano Landi
T:Source : Arie---Quinto libro---Venetia---B.Magni---1637. Editor : André Vierendeels (08/02/17).
T:Notes : Original clefs : G2, C4 Dotted brackets indicate black notes Figures in BC are notated in original print "Littere  per la Chitarra" :continuo proposed by the editor Original note values have been halved Poesia del Sig.Alessandro Zagarini
T:Deh ferm'il volo
T:©
T:©
C:Stefano Landi
Z:©
%%score 1 { ( 2 3 ) | 4 }
L:1/8
Q:1/4=106
M:6/4
K:C
V:1 treble nm="Soprano" snm="S"
V:2 treble nm="MusicXML Part"
V:3 treble 
V:4 bass 
V:1
 e2 f2 d2 e3 d c2 | d2 c2 _B2 A3 B c2 | B2 c2 d2 e2 d2 f2 | e2 d2 c2 d3 c B2 | d2 e2 e2 f3 e g2 | %5
w: Deh ferm' il vo- lo, _|Eu- rill' as- pet- ta- mi|oi- ra- ta'in pri- ma quei|be- gl'oc- chi vol- ta- mi,|el cor sa- et- ta- mi|
w: O piu che se- ra, _|spie- ta- ta'e ri- gi- da|o piu che ne- ve, ben|ch'il co- te'in- cen- de- mi,|ge- la- ta'e fri- gi- da|
w: Le mie que- rel- le, _|son pur tue glo- ri- e|le mie fe- ri- te, ond'|il mi- o pet- to'è la-|ce- ro son tue vit- to-|
w: Ahi che lon- ta- no, _|in van chia- an- do- ti|ti- man- go'in pre- d'al duol'|che'l cor- po e- sa- ni-|ma, e mo- ro'a- man- do-|
 f2 e3 d f2 f2 g2 | f4 e2 e3 f g2 | a2 d2 de !fermata!c6 |] %8
w: ch'al gra- ve duo- lo la|spe- me tol- ta- mi,|ti mo- ro ai fia.|
w: deh pria ch'io pe- ra A-|Eu- ril- la'in- ten- de-|mi e poi ten' va.|
w: rie vè pur cru- de- le|ch'af- flit- to'e ma- ce-|ro non pos- so piu.|
w: ti ma fug- g'in va- no|ch'al- men' con l'a- ni-|ma ti se- gui- ro.|
V:2
 G2 A2 G2 G2 A4 | G2 c2 _B2 A4 [_B,G]2 | B2 A4 G4 G2 | G2 A4 B6 | A2 G4 A4 D2 | F2 A4 F4 G2 | %6
 c2 B4 G4 c2 | c4 B2 !fermata!c6 |] %8
V:3
 E2 C2 D2 E2 F4 | D2 E2 F4 D2 =B,2 | D2 F4 E4 D2 | E2 ^F2 E2 D6 | D4 ^C2 E2 F2 D2 | D4 ^C2 D4 =C2 | %6
 A2 D2 E2 G4 G2 | F2 D4 .!fermata!E6 |] %8
V:4
"^BC" C2 A,2 B,2 C4 C2 |"^6" B,2 A,2 G,2 F,4 G,2- |"^6""^5" G,2 A,2 B,2 C4 B,2- | %3
"^#6" B,2 A,4 G,4 G,2 |"^6""^7#6""^6" F,2 E,4 D,3 E, F,2 |"^5""^43""^6" G,2 A,4 D,4 E,2 | %6
"^6" F,2 G,4 C,3 D, E,2 |"^43" F,2 G,4 !fermata!C,6 |] %8

